X: 25200
T: Malcolm Finlay
R: reel
M: 4/4
K: Emajor
|:c|BEGB EBbg|f/f/f fe gfec|BEGB EBbg|fefg e/e/e e:|
|:f|gebe gbeg|fege c/c/c ce|gebe gbeg|fefg e/e/e ef|
gebe gbeg|fege c/c/c ce|BEGB EBbg|fefg e/e/e e:|

